X:1
T:The Cuckoo (x)
M:3/4
L:1/4
K:C
 G G|F/2-E/2 CE/2-F/2| c G F/2D/2| B, C D| C3| z2 E/2F/2| G B G| c G C|\
 F G c| G3| z2 E/2F/2| G B G| c G(2C3.99999962500005/11.9999985000002C3.99999962500005/11.9999985000002D3.99999962500005/11.9999985000002 E3.99999962500005/11.9999985000002|\
 F Gc/2-B/2| G3| z2 G/2G/2|F/2-E/2 CE/2-F/2| cG/2-F/2D/2-C/2| B, C D|\
 C3|
